icons/thumbsdown-16.svg

<svg xmlns="http://www.w3.org/2000/svg" width="16" height="16" viewBox="0 0 16 16"><path d="M7.083 15.986c-.763-.087-1.499-.295-2.011-.884-.504-.581-.655-1.378-.655-2.299 0-.468.087-1.12.157-1.638l.015-.112H3.167c-.603 0-1.174-.086-1.669-.334a2.415 2.415 0 01-1.136-1.2c-.454-.998-.438-2.447-.188-4.316l.04-.306C.32 4.108.41 3.424.526 2.864c.132-.63.316-1.209.669-1.672C1.947.205 3.211.053 4.917.053c1.848 0 3.234.332 4.388.652l.474.133c.658.187 1.201.341 1.726.415a1.75 1.75 0 011.662-1.2h1c.966 0 1.75.784 1.75 1.75v7.5a1.75 1.75 0 01-1.75 1.75h-1a1.75 1.75 0 01-1.514-.872c-.259.105-.59.268-.919.508-.671.491-1.317 1.285-1.317 2.614v.5c0 1.201-.994 2.336-2.334 2.183zm4.334-13.232c-.706-.089-1.39-.284-2.072-.479l-.441-.125c-1.096-.304-2.335-.597-3.987-.597-1.794 0-2.28.222-2.529.548-.147.193-.275.505-.393 1.07-.105.502-.188 1.124-.295 1.93l-.04.3c-.25 1.882-.19 2.933.067 3.497a.923.923 0 00.443.48c.208.104.52.175.997.175h1.75c.685 0 1.295.577 1.205 1.335-.022.192-.049.39-.075.586-.066.488-.13.97-.13 1.329 0 .808.144 1.15.288 1.316.137.157.401.303 1.048.377.307.035.664-.237.664-.693v-.5c0-1.922.978-3.127 1.932-3.825a5.878 5.878 0 011.568-.809zm1.75 6.798h1a.25.25 0 00.25-.25v-7.5a.25.25 0 00-.25-.25h-1a.25.25 0 00-.25.25v7.5c0 .138.112.25.25.25z"/></svg>

<svg xmlns="http://www.w3.org/2000/svg" width="16" height="16" viewBox="0 0 16 16">
  <defs/>
  <path d="M7.083,15.986 C6.32,15.899 5.584,15.691 5.072,15.102 C4.568,14.521 4.417,13.724 4.417,12.803 C4.417,12.335 4.504,11.683 4.574,11.165 L4.589,11.053 L3.167,11.053 C2.564,11.053 1.993,10.967 1.498,10.719 C0.984,10.462 0.606,10.056 0.362,9.519 C-0.092,8.521 -0.076,7.072 0.174,5.203 L0.214,4.897 C0.32,4.108 0.41,3.424 0.526,2.864 C0.658,2.234 0.842,1.655 1.195,1.192 C1.947,0.205 3.211,0.053 4.917,0.053 C6.765,0.053 8.151,0.385 9.305,0.705 L9.779,0.838 C10.437,1.025 10.98,1.179 11.505,1.253 C11.742,0.536 12.412,0.053 13.167,0.053 L14.167,0.053 C15.133,0.053 15.917,0.837 15.917,1.803 L15.917,9.303 C15.917,10.269 15.133,11.053 14.167,11.053 L13.167,11.053 C12.543,11.053 11.966,10.721 11.653,10.181 C11.394,10.286 11.063,10.449 10.734,10.689 C10.063,11.18 9.417,11.974 9.417,13.303 L9.417,13.803 C9.417,15.004 8.423,16.139 7.083,15.986 Z M11.417,2.754 C10.711,2.665 10.027,2.47 9.345,2.275 C9.198,2.233 9.051,2.191 8.904,2.15 C7.808,1.846 6.569,1.553 4.917,1.553 C3.123,1.553 2.637,1.775 2.388,2.101 C2.241,2.294 2.113,2.606 1.995,3.171 C1.89,3.673 1.807,4.295 1.7,5.101 L1.66,5.401 C1.41,7.283 1.47,8.334 1.727,8.898 C1.811,9.107 1.969,9.277 2.17,9.378 C2.378,9.482 2.69,9.553 3.167,9.553 L4.917,9.553 C5.602,9.553 6.212,10.13 6.122,10.888 C6.1,11.08 6.073,11.278 6.047,11.474 C5.981,11.962 5.917,12.444 5.917,12.803 C5.917,13.611 6.061,13.953 6.205,14.119 C6.342,14.276 6.606,14.422 7.253,14.496 C7.56,14.531 7.917,14.259 7.917,13.803 L7.917,13.303 C7.917,11.381 8.895,10.176 9.849,9.478 C10.328,9.131 10.857,8.858 11.417,8.669 Z M13.167,9.552 L14.167,9.552 C14.305,9.552 14.417,9.44 14.417,9.302 L14.417,1.802 C14.417,1.664 14.305,1.552 14.167,1.552 L13.167,1.552 C13.029,1.552 12.917,1.664 12.917,1.802 L12.917,9.302 C12.917,9.44 13.029,9.552 13.167,9.552 Z"/>
</svg>
